X: 70
T:Dance 'Til Dawn
% Nottingham Music Database
S:Mike Richardson 27.8.89, via Phil Rowe
M:6/8
K:D
B,|"D"A,2D "G"B,2D|"D"A,2D "A"CDE|"D"FFF "Em"GFG|"A"ABA GFE|
"D"A,2D "G"B,2D|"D"A,2D "A"CDE|"D"FGA "G"Bcd|"A"FGE "D"D2::
E|"D"FDF FDF|"G"GEG GEG|"D"ABc dcB|"A"ABA GFE|
"D"FDF FDF|"G"GEG GEG|"D"ABc "G"dAG|"A"FGE "D"D2:|<end>
<start>
